X: 1
T: Bob Parson's
M: 4/4
L: 1/8
R: strathspey
K: Amin
a2|:A2 A>e a2>e2|g2>a2 g>e d>c|d2 d>e d>c A>G|A2 A>B c>B A>G|
A2 A>e a2>e2|g2>a2 g>e d>c|d2 d>e d>c A>G|1A2 A>GA2e2:|2A2A>G A>B c>d||
|:e>d c>A B>A e>d|c>A B>A e>d c>A|B>A e>d c>B A>G|G>A A B<B c<c d|
e>d c>A B>A e>d|c>A B>A e>d c>A|B>A e>d c>B A>G|1A2A>G A>B c>d:|2A2A>G A>B c2||
|:E>E c2 B2c (d|d2) c2 B2 c2|D>D B2 A2 B c|c2 B2A2^G2|
E>E c2 B2c (d|d2) c2 B2 c2|D>D B2 A2 G2|G>A A>G A2 B<c|
E>E c2 B2c (d|d2) c2 B2 c2|D>D B2 A2 B e|e2d2c2B2|
E>E c2 B2c (d|d2) c2 B2 c2|D>D B2 A2 G2|G>A A>G A>B c>d|
|:e>d c>A B>A B(c|c) A B>A B c2 A|B>A B c2 B<A G|G>A A B<B c<c d|
e>d c>A B>A B (c|c) A B>A B c2 A|B>A B c2 B<A G|1G<A A>G A>B c>d:|2G<A2 E>CA,4||
